X:47
T:Jimmy Keane's
R:Reel
Z:Bohola live at the Kennedy Center
M:C
K:Bm
Bbfd BcdB|cAeA fAec|Bbfd BcdB|ABcA ~d2cd|
Bbfd BcdB|cAeA fAeA|
fedf edce|1 dBcA Bcdc:|2 dBcA Bcde||
f~B3 defd|c~A3 eAce|f~B3 defd|cdec dBce|
f~B3 defd|c~A3 eAce|
fedf edce|1 ~d2cd Bcde:|2 ~d2cd Bcdc||
